dist/img/advantages/a2.svg

<svg width="55" height="55" viewBox="0 0 55 55" fill="none" xmlns="http://www.w3.org/2000/svg">
<g clip-path="url(#clip0)">
<path d="M29.7719 34.2725H10.1462C9.70128 34.2725 9.34055 33.9117 9.34055 33.4668C9.34055 33.0219 9.70128 32.6611 10.1462 32.6611H29.7718C30.2167 32.6611 30.5774 33.0219 30.5774 33.4668C30.5774 33.9117 30.2168 34.2725 29.7719 34.2725Z" fill="#00817C"/>
<path d="M29.7719 39.3818H10.1462C9.70128 39.3818 9.34055 39.0211 9.34055 38.5762C9.34055 38.1312 9.70128 37.7705 10.1462 37.7705H29.7718C30.2167 37.7705 30.5774 38.1312 30.5774 38.5762C30.5774 39.0211 30.2168 39.3818 29.7719 39.3818Z" fill="#00817C"/>
<path d="M29.7719 44.4873H10.1462C9.70128 44.4873 9.34055 44.1266 9.34055 43.6816C9.34055 43.2367 9.70128 42.876 10.1462 42.876H29.7718C30.2167 42.876 30.5774 43.2367 30.5774 43.6816C30.5774 44.1266 30.2168 44.4873 29.7719 44.4873Z" fill="#00817C"/>
<path d="M38.8279 16.2651H27.7396C27.2946 16.2651 26.9339 15.9044 26.9339 15.4595C26.9339 15.0145 27.2946 14.6538 27.7396 14.6538H38.8279C39.2728 14.6538 39.6335 15.0145 39.6335 15.4595C39.6335 15.9044 39.2728 16.2651 38.8279 16.2651Z" fill="#00817C"/>
<path d="M38.8279 11.4341H27.7396C27.2946 11.4341 26.9339 11.0734 26.9339 10.6284C26.9339 10.1835 27.2946 9.82275 27.7396 9.82275H38.8279C39.2728 9.82275 39.6335 10.1835 39.6335 10.6284C39.6335 11.0734 39.2728 11.4341 38.8279 11.4341Z" fill="#00817C"/>
<path d="M38.8279 21.0952H27.7396C27.2946 21.0952 26.9339 20.7345 26.9339 20.2896C26.9339 19.8446 27.2946 19.4839 27.7396 19.4839H38.8279C39.2728 19.4839 39.6335 19.8446 39.6335 20.2896C39.6335 20.7345 39.2728 21.0952 38.8279 21.0952Z" fill="#00817C"/>
<path d="M33.8148 29.1665H10.1462C9.70128 29.1665 9.34055 28.8058 9.34055 28.3608C9.34055 27.9159 9.70128 27.5552 10.1462 27.5552H33.8148C34.2597 27.5552 34.6205 27.9159 34.6205 28.3608C34.6205 28.8058 34.2597 29.1665 33.8148 29.1665Z" fill="#00817C"/>
<path d="M3.02203 31.7669C3.46697 31.7669 3.82769 31.4062 3.82769 30.9612V2.03092C3.82769 1.80351 4.02105 1.61133 4.24997 1.61133H41.9386C42.1675 1.61133 42.3609 1.80351 42.3609 2.03092V11.5967C42.3609 12.0417 42.7216 12.4024 43.1666 12.4024C43.6115 12.4024 43.9722 12.0417 43.9722 11.5967V2.03092C43.9722 0.911045 43.0599 0 41.9386 0H4.24986C3.12859 0 2.21636 0.911045 2.21636 2.03092V30.9612C2.21636 31.4062 2.57708 31.7669 3.02203 31.7669Z" fill="#00817C"/>
<path d="M52.4388 33.6454C51.9751 32.3036 50.3924 30.2552 48.705 30.0144C48.5005 29.9853 48.3002 29.9839 48.1054 30.0064C48.0581 29.8178 47.987 29.6326 47.8887 29.453C47.2094 28.212 45.3864 27.4791 43.9712 27.2885V15.3369C43.9712 14.892 43.6105 14.5312 43.1656 14.5312C42.7206 14.5312 42.3599 14.892 42.3599 15.3369V27.2885C40.9455 27.4791 39.1244 28.2117 38.4453 29.4521C38.3469 29.632 38.2757 29.8175 38.2285 30.0063C38.0328 29.9838 37.8317 29.9853 37.6264 30.0147C35.9363 30.2575 34.3563 32.305 33.8953 33.6459C33.3906 34.8845 33.3177 37.4058 34.5056 38.7919C34.6776 38.9926 34.8697 39.1592 35.078 39.2924C34.9941 39.4594 34.9289 39.6383 34.8858 39.83C34.5127 41.491 35.8709 43.6951 36.9639 44.6034C37.1744 44.7979 37.4669 45.005 37.8135 45.2041V51.1129H4.24896C4.02005 51.1129 3.82669 50.9207 3.82669 50.6933V34.7014C3.82669 34.2565 3.46596 33.8958 3.02102 33.8958C2.57608 33.8958 2.21536 34.2565 2.21536 34.7014V50.6935C2.21536 51.8134 3.12759 52.7245 4.24896 52.7245H37.8135V54.1945C37.8135 54.5043 37.9912 54.7866 38.2703 54.9208C38.5496 55.055 38.881 55.0171 39.1228 54.8234L43.1658 51.5848L47.2117 54.8236C47.3574 54.9402 47.5356 55.0003 47.7153 55.0003C47.8339 55.0003 47.9531 54.9741 48.0641 54.9208C48.3433 54.7866 48.5209 54.5043 48.5209 54.1946V45.2024C48.8658 45.004 49.1572 44.7978 49.367 44.6039C50.4611 43.6966 51.8211 41.4937 51.4488 39.8314C51.4057 39.639 51.3403 39.4594 51.2561 39.292C51.4638 39.1589 51.6554 38.9927 51.827 38.7925C53.016 37.4052 52.9435 34.8833 52.4388 33.6454ZM39.8588 30.2258C40.2831 29.4508 42.0452 28.8104 43.1365 28.8506C43.1559 28.8513 43.1752 28.8513 43.1947 28.8506C44.1681 28.8134 46.0174 29.3904 46.4752 30.2268C46.5408 30.3464 46.6941 30.6266 46.3222 31.1643L45.2858 32.6491C44.6422 32.3451 43.9236 32.1743 43.1656 32.1743C42.4058 32.1743 41.6855 32.3461 41.0408 32.6518L40.0122 31.1647C39.6398 30.6262 39.7933 30.3456 39.8588 30.2258ZM46.5288 37.1396C46.5288 38.9872 45.0201 40.4904 43.1657 40.4904C41.3129 40.4904 39.8055 38.9872 39.8055 37.1396C39.8055 35.2902 41.3129 33.7857 43.1657 33.7857C45.0201 33.7857 46.5288 35.2902 46.5288 37.1396ZM35.7292 37.7434C35.0376 36.9363 35.0483 35.0624 35.3928 34.241C35.4006 34.2226 35.4076 34.204 35.4139 34.1851C35.7215 33.2657 36.9088 31.7456 37.8556 31.6095C38.0682 31.5787 38.3553 31.6051 38.6881 32.0825L39.7161 33.569C38.7789 34.4725 38.1942 35.7387 38.1942 37.1395C38.1942 37.2875 38.2019 37.4336 38.2147 37.5784L36.787 38.0196C36.1828 38.1636 35.9045 37.948 35.7292 37.7434ZM36.4579 40.1832C36.4879 40.0496 36.5582 39.737 37.1957 39.5785C37.1957 39.5785 37.1958 39.5785 37.1959 39.5784C37.2104 39.5748 37.2248 39.5708 37.2392 39.5663L38.6178 39.1403C39.2857 40.6468 40.6826 41.7614 42.36 42.0355V43.8292C42.36 44.3597 42.1283 44.4596 42.0039 44.5132C41.034 44.9309 38.7976 44.1199 38.0493 43.4123C38.0353 43.3989 38.0207 43.3863 38.0058 43.374C37.2532 42.7586 36.2495 41.1112 36.4579 40.1832ZM46.9095 52.5176L43.6692 49.9236C43.3748 49.6881 42.9564 49.6881 42.662 49.9238L39.4248 52.5168V45.9082C40.0495 46.1066 40.7109 46.2346 41.3337 46.2346C41.802 46.2346 42.2486 46.1622 42.6412 45.9931C42.8367 45.9089 43.0112 45.8029 43.1657 45.6789C43.3201 45.8029 43.4946 45.9089 43.6901 45.9931C44.0828 46.1623 44.5293 46.2346 44.9976 46.2346C45.6214 46.2346 46.284 46.1061 46.9095 45.9071V52.5176ZM48.3263 43.3735C48.3111 43.3858 48.2964 43.3988 48.2821 43.4123C47.5337 44.1199 45.2969 44.9308 44.3274 44.5132C44.2029 44.4596 43.9713 44.3598 43.9713 43.8292V42.0357C45.6225 41.7661 47.0021 40.6832 47.683 39.2138L49.1387 39.5784C49.7765 39.7369 49.8466 40.0497 49.8765 40.1834C50.0694 41.0448 49.1703 42.6848 48.3263 43.3735ZM50.6037 37.7436C50.4265 37.9504 50.144 38.1677 49.5282 38.015L48.1126 37.6604C48.1305 37.4891 48.1401 37.3154 48.1401 37.1396C48.1401 35.7363 47.5529 34.4681 46.612 33.5642L47.6455 32.0834C47.9784 31.6056 48.2649 31.579 48.4772 31.6095C49.4219 31.7443 50.6109 33.2657 50.9209 34.1864C50.9271 34.2049 50.934 34.2231 50.9414 34.241C51.2858 35.0621 51.2959 36.936 50.6037 37.7436Z" fill="#00817C"/>
<path d="M21.735 7.8108H15.3532L14.7238 6.98924C13.3199 5.1621 10.6901 4.81373 8.86166 6.21226C7.9779 6.88568 7.40942 7.86591 7.26064 8.97268C7.11154 10.0817 7.40212 11.1799 8.07952 12.0657L9.67216 14.1422V21.0769C9.67216 22.1967 10.5845 23.1078 11.7058 23.1078H21.735C22.8563 23.1078 23.7686 22.1967 23.7686 21.0769V9.84172C23.7685 8.72184 22.8563 7.8108 21.735 7.8108ZM17.8354 13.7012C18.2501 14.2421 18.4285 14.915 18.3378 15.596C18.247 16.2774 17.8985 16.8802 17.3565 17.2938C16.2292 18.1543 14.6122 17.939 13.7509 16.8129L12.0454 14.5892L16.1297 11.4745L17.8354 13.7012ZM8.85758 9.1873C8.94899 8.50711 9.29758 7.90544 9.83909 7.49315C9.83963 7.49283 9.84006 7.4924 9.84059 7.49208C10.3053 7.13662 10.8541 6.96475 11.3993 6.96475C12.1729 6.96475 12.939 7.31107 13.4452 7.96989L15.15 10.1955L11.065 13.3107L9.3587 11.086C8.94384 10.5434 8.76594 9.86922 8.85758 9.1873ZM22.1572 21.0769C22.1572 21.3043 21.9638 21.4965 21.7349 21.4965H11.7057C11.4767 21.4965 11.2834 21.3043 11.2834 21.0769V16.2432L12.4717 17.7927C13.2935 18.8673 14.5391 19.4319 15.7986 19.4319C16.6844 19.4319 17.5773 19.1525 18.334 18.5748C19.2187 17.8999 19.7872 16.9176 19.935 15.8089C20.0827 14.7005 19.7912 13.6038 19.1143 12.7212L16.5873 9.42213H21.7349C21.9638 9.42213 22.1572 9.61431 22.1572 9.84172V21.0769Z" fill="#00817C"/>
</g>
<defs>
<clipPath id="clip0">
<rect width="55" height="55" fill="white"/>
</clipPath>
</defs>
</svg>

<svg width="55" height="55" viewBox="0 0 55 55" fill="none" xmlns="http://www.w3.org/2000/svg"><g clip-path="url(#clip0)" fill="#00817C"><path d="M29.772 34.273H10.146a.806.806 0 010-1.612h19.626a.806.806 0 010 1.611zm0 5.109H10.146a.806.806 0 010-1.611h19.626a.806.806 0 010 1.61zm0 5.105H10.146a.806.806 0 010-1.611h19.626a.806.806 0 010 1.611zm9.056-28.222H27.74a.806.806 0 110-1.611h11.088a.806.806 0 010 1.611zm0-4.831H27.74a.806.806 0 110-1.611h11.088a.806.806 0 010 1.611zm0 9.661H27.74a.806.806 0 110-1.611h11.088a.806.806 0 010 1.611zm-5.013 8.071H10.146a.806.806 0 010-1.61h23.669a.806.806 0 010 1.61z"/><path d="M3.022 31.767c.445 0 .806-.36.806-.806V2.031c0-.227.193-.42.422-.42h37.689c.228 0 .422.193.422.42v9.566a.806.806 0 101.611 0V2.03C43.972.91 43.06 0 41.94 0H4.249a2.035 2.035 0 00-2.033 2.03v28.931c0 .445.361.806.806.806zm49.417 1.878c-.464-1.341-2.047-3.39-3.734-3.63a2.338 2.338 0 00-.6-.009 2.328 2.328 0 00-.216-.553c-.68-1.241-2.503-1.974-3.918-2.165V15.337a.806.806 0 00-1.611 0v11.951c-1.414.191-3.236.924-3.915 2.164-.098.18-.17.365-.217.554a2.344 2.344 0 00-.602.009c-1.69.242-3.27 2.29-3.73 3.63-.505 1.24-.578 3.76.61 5.147.172.2.364.367.572.5-.084.167-.15.346-.192.538-.373 1.661.985 3.865 2.078 4.773.21.195.503.402.85.601v5.909H4.248a.427.427 0 01-.422-.42V34.701a.806.806 0 00-1.612 0v15.992c0 1.12.913 2.032 2.034 2.032h33.564v1.47a.806.806 0 001.31.628l4.043-3.238 4.046 3.239a.806.806 0 001.309-.63v-8.992c.345-.198.636-.404.846-.598 1.094-.907 2.454-3.11 2.082-4.773a2.33 2.33 0 00-.193-.539c.208-.133.4-.3.571-.5 1.189-1.387 1.117-3.909.612-5.147zm-12.58-3.42c.424-.774 2.186-1.415 3.277-1.374h.059c.973-.038 2.822.54 3.28 1.376.066.12.22.4-.153.937l-1.036 1.485a4.951 4.951 0 00-2.12-.475c-.76 0-1.48.172-2.125.478l-1.029-1.487c-.372-.539-.219-.82-.153-.94zm6.67 6.915a3.36 3.36 0 01-3.363 3.35 3.36 3.36 0 01-3.36-3.35 3.362 3.362 0 016.723 0zm-10.8.603c-.691-.807-.68-2.68-.336-3.502a.753.753 0 00.02-.056c.309-.92 1.496-2.44 2.443-2.576.212-.03.5-.004.832.474l1.028 1.486a4.947 4.947 0 00-1.501 4.01l-1.428.44c-.604.145-.883-.071-1.058-.276zm.729 2.44c.03-.133.1-.446.738-.605a.754.754 0 00.043-.012l1.379-.426a4.984 4.984 0 003.742 2.895v1.794c0 .53-.232.63-.356.684-.97.418-3.206-.393-3.955-1.1a.789.789 0 00-.043-.039c-.753-.615-1.757-2.263-1.548-3.19zM46.91 52.518l-3.24-2.594a.806.806 0 00-1.008 0l-3.237 2.593v-6.609c.625.199 1.286.327 1.909.327.468 0 .915-.073 1.307-.242.196-.084.37-.19.525-.314.154.124.329.23.524.314.393.17.84.242 1.308.242.623 0 1.286-.129 1.912-.328v6.61zm1.416-9.145a.771.771 0 00-.044.04c-.748.707-2.985 1.518-3.955 1.1-.124-.053-.356-.153-.356-.684v-1.793a4.987 4.987 0 003.712-2.822l1.456.364c.637.159.708.472.737.605.193.862-.706 2.502-1.55 3.19zm2.278-5.63c-.178.207-.46.425-1.076.272l-1.415-.355a4.945 4.945 0 00-1.5-4.096l1.032-1.48c.333-.478.62-.505.832-.475.945.135 2.134 1.657 2.444 2.577a.85.85 0 00.02.055c.345.821.355 2.695-.337 3.503z"/><path d="M21.735 7.81h-6.382l-.63-.82a4.193 4.193 0 00-5.861-.778 4.138 4.138 0 00-1.601 2.76 4.147 4.147 0 00.819 3.094l1.592 2.076v6.935c0 1.12.912 2.03 2.034 2.03h10.029a2.035 2.035 0 002.034-2.03V9.842c0-1.12-.913-2.031-2.034-2.031zm-3.9 5.891a2.54 2.54 0 01.503 1.895 2.542 2.542 0 01-.982 1.698 2.576 2.576 0 01-3.605-.481l-1.706-2.224 4.085-3.114 1.705 2.226zM8.858 9.187c.091-.68.44-1.282.981-1.694h.002a2.574 2.574 0 013.605.478l1.704 2.224-4.085 3.116-1.706-2.225a2.546 2.546 0 01-.501-1.899zm13.3 11.89c0 .227-.194.42-.423.42h-10.03a.427.427 0 01-.422-.42v-4.834l1.189 1.55a4.178 4.178 0 003.327 1.639c.885 0 1.778-.28 2.535-.857a4.142 4.142 0 001.601-2.766 4.14 4.14 0 00-.82-3.088l-2.528-3.299h5.148c.229 0 .422.192.422.42v11.235z"/></g><defs><clipPath id="clip0"><path fill="#fff" d="M0 0h55v55H0z"/></clipPath></defs></svg>
